X:405
T: KAISER JOSEPH
N: E0334
O: Europa, Mitteleuropa, Deutschland, Franken
R: historisches Lied, Bayrischer Erbfolgekrieg (1778)
M: 4/4
L: 1/8
K: G
 | G2GBG2GB | B2d2B4 |
A3BdcBA | A4G2z2 |
G2GBG2GB | B2d2B4 |
A3BdcBA | A4G2z2 |
A3GF2G2 | A3Bc4 |
d2ded2cB | B4A2z2 |
G2GBG2GB | B2d2B4 |
A3BdcBA | A4G2z2

@@@ Tune index: 4055
